X:1

T:Whim, The  [1]

M:6/8

L:1/8

S:Sharp – Country Dance Tunes (1909)

Z:AK/Fiddler’s Companion

K:G

d|BGG G>AB|c2B A2G|FAA A2B|c>de dBG|c>dB ABc|BGG G2d|

BGG G>AB|c2B A2G|FAA A2B|c>de dBG|c>dB ABc|BGG G2||

B|c>de/f/ g>fe|dBc A2G|cAA A>Bc|d3 c3|B>cB A2d|BGG G2B|

c>de/f/ g>fe|dBc A2G|cAA A>Bc|d3 c3|B>cB A2d|BGG G2||

 

WHIM [2], THE. American, Dance Tune (2/4 time). D Major. Standard tuning. AABBCCDD. Published in John Clarkson Junior’s American Tunes No. 1, Arranged for the Piano Forte, a single-sheet dating from around 1805.

 

WHIM [3], THE.  English, Country Dance Tune (cut time). A Major. Standard tuning. AABB. This “Whim” appears to be unique to Charles and Samuel Thompson’s Compleat Collection, vol. 3 (London, 1773). Thompson (Compleat Collection of 200 Favourite Country Dances, vol. 3), 1773; No. 184.

